X:1
T: Castle Wynd
C:
R:Strathspey
Q: 128
K:A
M:4/4
L:1/16
|:e3d|c3A EC3 E4 A2Bc|d3B c3A B4 e3d|c3A EC3 E4 A3G|Dd3 B3G A4 e3d|
c3A EC3 E4 A2Bc|d2cB c3A Bf3 e3d|c2de A4 F2GA D4|Ed3 B3G A4:|
|:E3D|CE3 A4 DF3 A4|Ec3 B3A B4 E3D|C2DE A4 D2EF A4|Ee3 c3B A4 E3D|
((3C2D2E2) A3c DF3 A4|Ec3 B3A B3f e3d|c3A EC3 E4 A3G|Fd3 B3G A4:|
